svgs/sharp-light/pot-food.svg

<svg xmlns="http://www.w3.org/2000/svg" viewBox="0 0 640 512"><!--! Font Awesome Pro 6.6.0 by @fontawesome - https://fontawesome.com License - https://fontawesome.com/license (Commercial License) Copyright 2024 Fonticons, Inc. --><path d="M128 16l0-16L96 0l0 16c0 25.8 4.3 44.4 11.7 59.2c7.2 14.3 16.7 23.9 24.6 31.7l.4 .4c8.1 8.1 14.3 14.4 19 23.8c4.6 9.2 8.3 22.7 8.3 44.8l0 16 32 0 0-16c0-25.8-4.3-44.4-11.7-59.2c-7.2-14.3-16.7-23.9-24.6-31.7l-.4-.4c-8.1-8.1-14.3-14.4-19-23.8C131.7 51.6 128 38.2 128 16zm96 0l0-16L192 0l0 16c0 25.8 4.3 44.4 11.7 59.2c7.2 14.3 16.7 23.9 24.6 31.7c0 0 0 0 0 0s0 0 0 0s0 0 0 0l.4 .4c8.1 8.1 14.3 14.4 19 23.8c4.6 9.2 8.3 22.7 8.3 44.8l0 16 32 0 0-16c0-25.8-4.3-44.4-11.7-59.2c-7.2-14.3-16.7-23.9-24.6-31.7l-.4-.4c-8.1-8.1-14.3-14.4-19-23.8C227.7 51.6 224 38.2 224 16zM32 256l-16 0 0 32 16 0 35.8 0c5.8 81.7 55 150.6 124.2 184.9l0 7.1 0 32 32 0 192 0 32 0 0-32 0-7.1C517.2 438.6 566.4 369.7 572.2 288l35.8 0 16 0 0-32-16 0-33.9 0 1.9-32-32.1 0L96.1 224 64 224l1.9 32L32 256zm507.4-64c-13.8-46.3-56.6-80-107.4-80s-93.6 33.7-107.4 80l34 0c12.3-28.3 40.5-48 73.3-48s61 19.7 73.3 48l34 0zM224 472.9l0-19.9-17.8-8.8c-60.1-29.7-102.5-89.9-106.6-160.9L97.9 256l444.1 0-1.6 27.3c-4.2 71-46.6 131.2-106.6 160.9L416 453l0 19.9 0 7.1-192 0 0-7.1z"/></svg>

<svg xmlns="http://www.w3.org/2000/svg" viewBox="0 0 640 512"><!--! Font Awesome Pro 6.4.0 by @fontawesome - https://fontawesome.com License - https://fontawesome.com/license (Commercial License) Copyright 2023 Fonticons, Inc. --><path d="M128 16V0H96V16c0 25.8 4.3 44.4 11.7 59.2c7.2 14.3 16.7 23.9 24.6 31.7l.4 .4c8.1 8.1 14.3 14.4 19 23.8c4.6 9.2 8.3 22.7 8.3 44.8v16h32V176c0-25.8-4.3-44.4-11.7-59.2c-7.2-14.3-16.7-23.9-24.6-31.7l-.4-.4c-8.1-8.1-14.3-14.4-19-23.8C131.7 51.6 128 38.2 128 16zm96 0V0H192V16c0 25.8 4.3 44.4 11.7 59.2c7.2 14.3 16.7 23.9 24.6 31.7l0 0 0 0 0 0 .4 .4c8.1 8.1 14.3 14.4 19 23.8c4.6 9.2 8.3 22.7 8.3 44.8v16h32V176c0-25.8-4.3-44.4-11.7-59.2c-7.2-14.3-16.7-23.9-24.6-31.7l-.4-.4c-8.1-8.1-14.3-14.4-19-23.8C227.7 51.6 224 38.2 224 16zM32 256H16v32H32 67.8c5.8 81.7 55 150.6 124.2 184.9V480v32h32H416h32V480v-7.1C517.2 438.6 566.4 369.7 572.2 288H608h16V256H608 574.1l1.9-32H543.9 96.1 64l1.9 32H32zm507.4-64c-13.8-46.3-56.6-80-107.4-80s-93.6 33.7-107.4 80h34c12.3-28.3 40.5-48 73.3-48s61 19.7 73.3 48h34zM224 472.9V453l-17.8-8.8c-60.1-29.7-102.5-89.9-106.6-160.9L97.9 256H542.1l-1.6 27.3c-4.2 71-46.6 131.2-106.6 160.9L416 453v19.9V480H224v-7.1z"/></svg>
